X:56
T:An Dro
C:Skolvan "Fest Noz Live"
M:4/4
L:1/8
K:G
EGFE D3E|GFGA B2BB|EGFE D2EF|1  GEFD EBBG:|2 GEFD E4:|\
~B2AG F3B|
BBAG F3B|EGFE D3E|F2EF.B4|\
~B2AG F3G|ABAG F3B|EGFE D2EF|GEFD E4:|
